X:440
T:Connie the Soldier
T:Lake Shore
R:jig
H:Related to "The Southwest Wind", #159
H:Related to "Connie the Soldier", #212
D:Angelina Carberry and Martin Quinn
Z:hn-jig-440
M:6/8
L:1/8
K:Dmix
DEG A2A | AdB cAG | EGG EGG | EcA GEA |
DE/F/G A2A | AdB cAG | EGG EAG |1 E2D D2A, :|2 E2D Dde ||
|: fdd ede | fd^c d2e | fed ~=c3 | BAG A2g |
fdd ed^c | ded =cAG | EGG EAG |1 E2D Dde :|2 E2D D2A, ||
P:variations
|: DEG ~A3 | AdB cAG | E2G EGG | EAF GED |
DE/F/G ABA | AdB cAG | EGG EAG |1 EDD D2A, :|2 EDD D2e ||
|: f2d ed^c | ed^c d2e | f2d =cAA | BAG A2e |
f2d ed^c | AdB =cAG | EGG EAG |1 EDD D2e :|2 EDD D2A, ||

